X:332
T:Mrs. Gunn's Strathspey
R:Strathspey
M:C
Q:1/4=135
K:Em
uB|\
"Em"G<EB>G {/G}E>FG>E| "D"F<EA3/2F//F// d>AF<D| "Em"G<EB>G E>eG>B|
"D"A>c{Bc}B>A "Em"G<EE>B| "Em"G<EB>G {/G}E>FG>E| "D"F<DA3/2F//F// d>AF<D|
"Em"G<EB>G e>B{ga}g>e|"D"b>ga>f {ga}"Em"g<eee/f/|| "Em"a/g/f/e/ b>e {/f}g/f/e/^d/ e>B|
"D"d>fa>f d<DFA| "Em"e>gbe e<Be>G| "D"A>c{Bc}B>A "Em"G<E Ee/f/| "Em"a/g/f/e/ b>e {ga}g>e{/^d}e>B|
"D"d>fA>f A<dF<D| {/D}"C"G>EC<E "Em/B"B,<EA,3/2B//c// | "B7"B>AG>F "Em"G<EE>B|]
